assets/images/icons/src/user-md.svg

<?xml version="1.0" encoding="utf-8"?>
<!-- Generated by IcoMoon.io -->
<!DOCTYPE svg PUBLIC "-//W3C//DTD SVG 1.1//EN" "http://www.w3.org/Graphics/SVG/1.1/DTD/svg11.dtd">
<svg version="1.1" xmlns="http://www.w3.org/2000/svg" xmlns:xlink="http://www.w3.org/1999/xlink" width="11" height="14" viewBox="0 0 11 14">
<path fill="#444444" d="M3 10.5q0 0.203-0.148 0.352t-0.352 0.148-0.352-0.148-0.148-0.352 0.148-0.352 0.352-0.148 0.352 0.148 0.148 0.352zM11 10.977q0 0.945-0.57 1.484t-1.516 0.539h-6.828q-0.945 0-1.516-0.539t-0.57-1.484q0-0.531 0.043-1.023t0.187-1.078 0.371-1.035 0.633-0.805 0.937-0.473q-0.172 0.406-0.172 0.937v1.586q-0.453 0.156-0.727 0.547t-0.273 0.867q0 0.625 0.438 1.062t1.062 0.438 1.062-0.438 0.438-1.062q0-0.477-0.277-0.867t-0.723-0.547v-1.586q0-0.484 0.195-0.727 1.031 0.813 2.305 0.813t2.305-0.813q0.195 0.242 0.195 0.727v0.5q-0.828 0-1.414 0.586t-0.586 1.414v0.695q-0.25 0.227-0.25 0.555 0 0.312 0.219 0.531t0.531 0.219 0.531-0.219 0.219-0.531q0-0.328-0.25-0.555v-0.695q0-0.406 0.297-0.703t0.703-0.297 0.703 0.297 0.297 0.703v0.695q-0.25 0.227-0.25 0.555 0 0.312 0.219 0.531t0.531 0.219 0.531-0.219 0.219-0.531q0-0.328-0.25-0.555v-0.695q0-0.531-0.27-0.996t-0.73-0.73q0-0.078 0.004-0.332t0-0.375-0.020-0.324-0.055-0.367-0.102-0.312q0.531 0.117 0.937 0.473t0.633 0.805 0.371 1.035 0.187 1.078 0.043 1.023zM8.5 4q0 1.242-0.879 2.121t-2.121 0.879-2.121-0.879-0.879-2.121 0.879-2.121 2.121-0.879 2.121 0.879 0.879 2.121z"></path>
</svg>

<svg xmlns="http://www.w3.org/2000/svg" width="11" height="14" viewBox="0 0 11 14"><path fill="#444" d="M3 10.5q0 .203-.148.352T2.5 11t-.352-.148T2 10.5t.148-.352T2.5 10t.352.148T3 10.5zm8 .477q0 .945-.57 1.484T8.914 13H2.086q-.945 0-1.516-.539T0 10.977q0-.531.043-1.023T.23 8.876t.371-1.035.633-.805.937-.473q-.172.406-.172.937v1.586q-.453.156-.727.547t-.273.867q0 .625.438 1.062T2.499 12t1.062-.438.438-1.062q0-.477-.277-.867t-.723-.547V7.5q0-.484.195-.727 1.031.813 2.305.813t2.305-.813q.195.242.195.727V8q-.828 0-1.414.586T5.999 10v.695q-.25.227-.25.555 0 .312.219.531t.531.219.531-.219.219-.531q0-.328-.25-.555V10q0-.406.297-.703T7.999 9t.703.297.297.703v.695q-.25.227-.25.555 0 .312.219.531t.531.219.531-.219.219-.531q0-.328-.25-.555V10q0-.531-.27-.996t-.73-.73l.004-.332q.004-.254 0-.375t-.02-.324-.055-.367-.102-.312q.531.117.937.473t.633.805.371 1.035.187 1.078.043 1.023zM8.5 4q0 1.242-.879 2.121T5.5 7t-2.121-.879T2.5 4t.879-2.121T5.5 1t2.121.879T8.5 4z"/></svg>
